rospo-icon-theme-classic-common/16x16/apps/christmas-tree.svg

<svg height="16" width="16" xmlns="http://www.w3.org/2000/svg"><path d="m8.077636 4.0018371a1.6564074 1.6685697 0 0 0 -1.5122907.8325721l-2.1713912 3.7889364-2.1721994 3.7889364a1.6564074 1.6685697 0 0 0  .5062529 2.215847s2.0866455 1.371871 5.2719922 1.371871c3.1853472 0 5.2719922-1.371871 5.2719922-1.371871a1.6564074 1.6685697 0 0 0  .506254-2.215847l-2.1722-3.7889364-2.1713908-3.7889364a1.6564074 1.6685697 0 0 0 -1.3570192-.8325721z" fill="#337f36"/><path d="m8.0646962 3.001532a1.3803395 1.3904748 0 0 0 -1.260242.6938099l-1.8094925 3.1574467-1.8101663 3.1574474a1.3803395 1.3904748 0 0 0  .4218776 1.846539s1.7388711 1.143225 4.3933261 1.143225c2.6544559 0 4.3933279-1.143225 4.3933279-1.143225a1.3803395 1.3904748 0 0 0  .421877-1.846539l-1.810166-3.1574474-1.8094923-3.1574467a1.3803395 1.3904748 0 0 0 -1.1308495-.6938099z" fill="#3e9d43"/><path d="m8.0517567 2.0012306a1.1042709 1.112379 0 0 0 -1.0081929.5550477l-1.4475931 2.5259555-1.4481318 2.5259563a1.1042709 1.112379 0 0 0  .3375018 1.4772302s1.3910959.9145797 3.5146584.9145797c2.1235639 0 3.5146599-.9145797 3.5146599-.9145797a1.1042709 1.112379 0 0 0  .337502-1.4772302l-1.448132-2.5259563-1.4475933-2.5259555a1.1042709 1.112379 0 0 0 -.904679-.5550477z" fill="#5dc062"/><path d="m7.9999635-.00003595c-.2704538.00400276-.4633326.17273675-.5538504.45205451l.00338-.0125963-.4249442 1.57278364h-1.4330354c-.00311-.0000518-.00608-.0000518-.00921 0-.1711296.00574-.3254355.088501-.434152.2255881-.2351209.2795357-.1852874.5071386.1132814.7156126l1.1266738.85284-.437221 1.4068469c-.0004875.00154-.0009375.00311-.00139.00469-.066808.2273069-.004.4614876.164063.6216851.00116.0012.00263.00236.00392.00353.2019392.1859331.4856759.2095645.7137273.055665.00434-.00293.00865-.00594.012833-.00908l1.1559763-.8645678 1.1559711.8645577c.00418.00311.00849.00618.012833.00908.2280513.1538997.5117888.1302682.7137272-.055665.00122-.00116.00263-.00233.00394-.00353.1680464-.1601975.2308704-.3943782.1640624-.6216851-.00045-.00157-.000938-.00311-.0014-.00469l-.4372553-1.4068368 1.1266743-.8528396c.298568-.2084744.348402-.4360773.113281-.7156129-.108716-.1370868-.263022-.219843-.434152-.2255881-.0031-.0000518-.0061-.0000518-.0092 0h-1.4330351l-.4249442-1.57278361.00338.0125963c-.0906018-.27931789-.2834803-.44805086-.5539342-.45205464z" fill="#ae3030"/><g fill="#ffe15e"><path d="m7 7.9999999a1 1 0 0 1 -.9999999 1.0000001 1 1 0 0 1 -1.0000001-1.0000001 1 1 0 0 1 1.0000001-.9999999 1 1 0 0 1  .9999999.9999999z"/><path d="m12 10.999999a.99999982.99999982 0 0 1 -1.000001 1.000001.99999982.99999982 0 0 1 -.999999-1.000001.99999982.99999982 0 0 1  .999999-.999999.99999982.99999982 0 0 1 1.000001.999999z"/><path d="m7 14.000001a1 1 0 0 1 -.9999999.999999 1 1 0 0 1 -1.0000001-.999999 1 1 0 0 1 1.0000001-1 1 1 0 0 1  .9999999 1z"/><path d="m9 7.5000053a.50000004.50000004 0 0 1 -.5.5.50000004.50000004 0 0 1 -.5-.5.50000004.50000004 0 0 1  .5-.5.50000004.50000004 0 0 1  .5.5z"/><path d="m8 11.500003a.49999997.49999997 0 0 1 -.4999999.5.49999997.49999997 0 0 1 -.5000001-.5.49999997.49999997 0 0 1  .5000001-.500001.49999997.49999997 0 0 1  .4999999.500001z"/><path d="m10 14.499999a.50000016.50000016 0 0 1 -.4999998.500001.50000016.50000016 0 0 1 -.5000002-.500001.50000016.50000016 0 0 1  .5000002-.499999.50000016.50000016 0 0 1  .4999998.499999z"/><path d="m5 10.500001a.49999997.49999997 0 0 1 -.4999999.499999.49999997.49999997 0 0 1 -.5000001-.499999.49999997.49999997 0 0 1  .5000001-.5.49999997.49999997 0 0 1  .4999999.5z"/><path d="m12.999997 13.5a.49999966.49999966 0 0 1 -.5.5.49999966.49999966 0 0 1 -.5-.5.49999966.49999966 0 0 1  .5-.5.49999966.49999966 0 0 1  .5.5z"/></g></svg>

<svg xmlns="http://www.w3.org/2000/svg" width="16" height="16" version="1">
 <path style="fill:#337f36" d="M 8.077636,4.0018371 A 1.6564074,1.6685697 0 0 0 6.5653453,4.8344092 L 4.3939541,8.6233456 2.2217547,12.412282 a 1.6564074,1.6685697 0 0 0 0.5062529,2.215847 c 0,0 2.0866455,1.371871 5.2719922,1.371871 3.1853472,0 5.2719922,-1.371871 5.2719922,-1.371871 a 1.6564074,1.6685697 0 0 0 0.506254,-2.215847 L 11.606046,8.6233456 9.4346552,4.8344092 A 1.6564074,1.6685697 0 0 0 8.077636,4.0018371 Z"/>
 <path d="M 8.0646962,3.001532 A 1.3803395,1.3904748 0 0 0 6.8044542,3.6953419 L 4.9949617,6.8527886 3.1847954,10.010236 a 1.3803395,1.3904748 0 0 0 0.4218776,1.846539 c 0,0 1.7388711,1.143225 4.3933261,1.143225 2.6544559,0 4.3933279,-1.143225 4.3933279,-1.143225 a 1.3803395,1.3904748 0 0 0 0.421877,-1.846539 L 11.005038,6.8527886 9.1955457,3.6953419 A 1.3803395,1.3904748 0 0 0 8.0646962,3.001532 Z" style="fill:#3e9d43"/>
 <path style="fill:#5dc062" d="M 8.0517567,2.0012306 A 1.1042709,1.112379 0 0 0 7.0435638,2.5562783 L 5.5959707,5.0822338 4.1478389,7.6081901 a 1.1042709,1.112379 0 0 0 0.3375018,1.4772302 c 0,0 1.3910959,0.9145797 3.5146584,0.9145797 2.1235639,0 3.5146599,-0.9145797 3.5146599,-0.9145797 A 1.1042709,1.112379 0 0 0 11.852161,7.6081901 L 10.404029,5.0822338 8.9564357,2.5562783 A 1.1042709,1.112379 0 0 0 8.0517567,2.0012306 Z"/>
 <path style="fill:#ae3030" d="M 7.9999635,-3.5948896e-5 C 7.7295097,0.00396681 7.5366309,0.1727008 7.4461131,0.45201856 l 0.00338,-0.0125963 -0.4249442,1.57278364 -1.4330354,0 c -0.00311,-5.18e-5 -0.00608,-5.18e-5 -0.00921,0 C 5.4111739,2.0179459 5.256868,2.1007069 5.1481515,2.237794 4.9130306,2.5173297 4.9628641,2.7449326 5.2614329,2.9534066 l 1.1266738,0.85284 -0.437221,1.4068469 c -4.875e-4,0.00154 -9.375e-4,0.00311 -0.00139,0.00469 -0.066808,0.2273069 -0.004,0.4614876 0.164063,0.6216851 0.00116,0.0012 0.00263,0.00236 0.00392,0.00353 0.2019392,0.1859331 0.4856759,0.2095645 0.7137273,0.055665 0.00434,-0.00293 0.00865,-0.00594 0.012833,-0.00908 L 8.0000153,5.0250158 9.1559864,5.8895735 c 0.00418,0.00311 0.00849,0.00618 0.012833,0.00908 0.2280513,0.1538997 0.5117888,0.1302682 0.7137272,-0.055665 0.00122,-0.00116 0.00263,-0.00233 0.00394,-0.00353 0.1680464,-0.1601975 0.2308704,-0.3943782 0.1640624,-0.6216851 -4.5e-4,-0.00157 -9.38e-4,-0.00311 -0.0014,-0.00469 L 9.6118937,3.8062466 10.738568,2.953407 C 11.037136,2.7449326 11.08697,2.5173297 10.851849,2.2377941 10.743133,2.1007073 10.588827,2.0179511 10.417697,2.012206 c -0.0031,-5.18e-5 -0.0061,-5.18e-5 -0.0092,0 l -1.4330351,0 -0.4249442,-1.57278361 0.00338,0.0125963 C 8.4632959,0.1727008 8.2704174,0.00396783 7.9999635,-3.5948896e-5 Z"/>
 <path style="fill:#ffe15e" d="M 7,7.9999999 A 1,1 0 0 1 6.0000001,9 1,1 0 0 1 5,7.9999999 1,1 0 0 1 6.0000001,7 1,1 0 0 1 7,7.9999999 Z"/>
 <path d="M 12,10.999999 A 0.99999982,0.99999982 0 0 1 10.999999,12 0.99999982,0.99999982 0 0 1 10,10.999999 0.99999982,0.99999982 0 0 1 10.999999,10 0.99999982,0.99999982 0 0 1 12,10.999999 Z" style="fill:#ffe15e"/>
 <path style="fill:#ffe15e" d="M 7,14.000001 A 1,1 0 0 1 6.0000001,15 1,1 0 0 1 5,14.000001 a 1,1 0 0 1 1.0000001,-1 1,1 0 0 1 0.9999999,1 z"/>
 <path d="m 9,7.5000053 a 0.50000004,0.50000004 0 0 1 -0.5,0.5 0.50000004,0.50000004 0 0 1 -0.5,-0.5 0.50000004,0.50000004 0 0 1 0.5,-0.5 0.50000004,0.50000004 0 0 1 0.5,0.5 z" style="fill:#ffe15e"/>
 <path style="fill:#ffe15e" d="m 8,11.500003 a 0.49999997,0.49999997 0 0 1 -0.4999999,0.5 A 0.49999997,0.49999997 0 0 1 7,11.500003 0.49999997,0.49999997 0 0 1 7.5000001,11.000002 0.49999997,0.49999997 0 0 1 8,11.500003 Z"/>
 <path d="M 10,14.499999 A 0.50000016,0.50000016 0 0 1 9.5000002,15 0.50000016,0.50000016 0 0 1 9,14.499999 0.50000016,0.50000016 0 0 1 9.5000002,14 0.50000016,0.50000016 0 0 1 10,14.499999 Z" style="fill:#ffe15e"/>
 <path d="M 5,10.500001 A 0.49999997,0.49999997 0 0 1 4.5000001,11 0.49999997,0.49999997 0 0 1 4,10.500001 a 0.49999997,0.49999997 0 0 1 0.5000001,-0.5 0.49999997,0.49999997 0 0 1 0.4999999,0.5 z" style="fill:#ffe15e"/>
 <path style="fill:#ffe15e" d="m 12.999997,13.5 a 0.49999966,0.49999966 0 0 1 -0.5,0.5 0.49999966,0.49999966 0 0 1 -0.5,-0.5 0.49999966,0.49999966 0 0 1 0.5,-0.5 0.49999966,0.49999966 0 0 1 0.5,0.5 z"/>
</svg>
